X: 5
T: When Sick Is It Tea That You Want?
R: jig
M: 6/8
L: 1/8
K: Dmaj
F/G/|:Add dcB|{c}A^GB {c}AF=G |AdB cde|fdB {c}BAF|
Add fdB|{c}A^GB {c}AF=G|AdB cde|1fdc d3:|2fdc (4d>efg|
|:{b}afd dcd|{c}BGF (4G>fga|bge e^de|cAA {c}AFG|
Add {a}fdB |{c}AFB {AB}AFG |A3 cde|1fdc (4d>efg:|2fdc d3|]


Tune 427	Setting 13287

